X: 41154
T: Tripping Down The Stairs
R: reel
M: 4/4
K: Gmajor
|:BG G/G/G BGAd|BGDC B,G,DC|B,/B,/B, B,D ECEG|FDEF GAdc|
BG G/G/G BGAd|BGDC B,G,DC|B,/B,/B, B,D ECEG|1 FDEF G2GA:|2 FDEF G2ga||
|:bg~g2 egdb|caBg AfGe|FdEc DBCA|B,GA,F G,A,B,D|
GABc dBGB|ABcA BGDC|B,/B,/B, B,D ECEG|1 FDEF G2ga:|2 FDEF G2GA||

